X:1
T:Till the Morning Light
T:Till the Morning Light
T:John Harrison Tenney
T:Ellen C. Webster, 1891
T:Public Domain Courtesy of the Cyber Hymnal™
C:John Harrison Tenney
Z:Public Domain
Z:Courtesy of the Cyber Hymnal™
%%score ( 1 2 ) ( 3 4 )
L:1/8
Q:1/4=100
M:4/4
K:Ab
V:1 treble 
V:2 treble 
V:3 bass 
V:4 bass 
V:1
 [CE]2 [CE]2 [EB]2 [Ec]2 | [FB]>[FA] [EG]>[DF] [CE]4 | [B,E]2 [DB]2 [DB]>[CA] [EB]>[Ec] | %3
w: 1.~An- gels guard you|till the morn- ing light;|Let no fear- ful dreams dis-|
w: 2.~An- gels guard you|till the morn- ing light;|Let no mid- night foe an-|
w: 3.~An- gels guard you|till the morn- ing light;|Hov- ’ring round and ev- er|
 [CA]4 [CE]4 | [CA]2 [Ec]2 [Ec]>[Fc] [FB]>[FA] | [Ec]4 [EB]4 | [Ec]2 [Ee]2 [Ec]2 [CA]2 | %7
w: tress you,|But with peace- ful slum- ber|bless you,|An- gels guard you|
w: noy you,|Nor the tempt- er’s wiles de-|coy you,|An- gels guard you|
w: near you,|Sent from Heav’n to bless and|cheer you,|An- gels guard you|
 [DB]>[CA] [DB]>[Ec] [CA]4 ||"^Refrain" c6 x2 | B6 x2 | A6 (cA) | [GB]6 z2 | %12
w: till the morn- ing light!|||||
w: till the morn- ing light!|Till|the|morn- ing, *|the|
w: till the morn- ing light!|||||
 [Ec]2 [Ec]2 [Ec]>[Ed] [Ee]>[Ec] | [EB]2 [=DB]2 [EB]4 | [Ec]2 [Ee]2 [Ec]2 [CA]2 | %15
w: |||
w: morn- ing light! Thro’ the long|and drea- ry|hours of night, An-|
w: |||
 [DB]>[CA] [DB]>[Ec] [CA]4 |] %16
w: |
w: gels guard you till the|
w: |
V:2
 x8 | x8 | x8 | x8 | x8 | x8 | x8 | x8 || (E>EE>E E2) (e>c) | (G>GG>G G2) c>B | (F2 F2 F2) F2 | %11
 x8 | x8 | x8 | x8 | x8 |] %16
V:3
 [A,,A,]2 [A,,A,]2 [A,,C]2 [A,,E]2 | [D,D]>[D,D] [D,A,]>[D,A,] [A,,A,]4 | %2
w: ~ ~ ~ ~|~ ~ ~ ~ ~|
 [E,G,]2 [E,G,]2 [E,G,]>[E,A,] [E,G,]>E, | [A,,E,]4 [A,,A,]4 | %4
w: ~ ~ ~ ~ ~ ~|~ ~|
 [A,,A,]2 [A,,A,]2 [D,A,]>[D,A,] [=D,A,]>[D,A,] | [E,A,]4 [E,G,]4 | %6
w: ~ ~ ~ ~ ~ ~|~ ~|
 [A,,A,]2 [A,,C]2 [A,,A,]2 [A,,A,]2 | [E,G,]>[E,A,] [E,G,]>[E,G,] [A,,A,]4 || %8
w: ~ ~ ~ ~|~ ~ ~ ~ ~|
 [A,,A,]>[A,,A,] [A,,A,]>[A,,A,] [A,,A,]2 z2 | [E,E]>[E,E] [E,E]>[E,E] [E,E]2 z2 | %10
w: Till the morn- ing light,|till the morn- ing light!|
 [F,C]2 [F,C]2 [F,C]2 (A,C) | [E,E]6 z2 | [A,,A,]2 [A,,A,]2 [A,,A,]>[A,,B,] [A,,C]>[A,,A,] | %13
w: till the morn- ing *|light!||
 [E,G,]2 [B,,F,]2 [E,G,]4 | [A,,A,]2 [A,,C]2 [A,,A,]2 [A,,A,]2 | %15
w: ||
 [E,G,]>[E,A,] [E,G,]>[E,G,] [A,,A,]4 |] %16
w: |
V:4
 x8 | x8 | x15/2 E,/ | x8 | x8 | x8 | x8 | x8 || x8 | x8 | x6 F,2 | x8 | x8 | x8 | x8 | x8 |] %16

